X:1
T:Caliope House
C:Dave Richardson
R:jig
M:6/8
L:1/8
K:D
~a3 faa|eaa def|~g3 fgf|~e3 edB|ABA A2F|
A2B d2e|1 ~f3 fed|e2e efg:|2 ~f3 efe|d3 dAB|]
dAA fAA|eAA fed|Bee ~e2d|efd ~B3|
ABA A2F|A2B d2e|faf fed|~e3 edB|
Add fAA|eAA fed|Bee ~e2d|efd ~B3|
ABA A2F|A2B d2e|faf edB|d3 d2a|]
</abc>
